packages/ui-icons/src/Service-logos/24/Gmail.svg

<svg viewBox="0 0 32 32" fill="none" xmlns="http://www.w3.org/2000/svg">
<path d="M16 28C22.6274 28 28 22.6274 28 16C28 9.37258 22.6274 4 16 4C9.37258 4 4 9.37258 4 16C4 22.6274 9.37258 28 16 28Z" fill="white"/>
<path d="M16 28.5C9.125 28.5 3.5 22.875 3.5 16C3.5 9.125 9.125 3.5 16 3.5C22.875 3.5 28.5 9.125 28.5 16C28.5 22.875 22.875 28.5 16 28.5ZM16 4.54167C9.64583 4.54167 4.54167 9.64583 4.54167 16C4.54167 22.3542 9.64583 27.4583 16 27.4583C22.3542 27.4583 27.4583 22.3542 27.4583 16C27.4583 9.64583 22.3542 4.54167 16 4.54167Z" fill="#D8D8D8"/>
<path d="M10.8 13.2L21.4 13.7V20.7H10.8V13.2Z" fill="#E1E1E1"/>
<path d="M16 17.3L10.8 20.7H21.3L21.4 13.7L16 17.3Z" fill="#EEEEEE"/>
<path d="M10.8 12.1V20.7H10.1C9.60001 20.7 9.20001 20.3 9.20001 19.8V12.2L10.8 12.1Z" fill="#D23F31"/>
<path d="M21.3 12.1H22.9V19.8C22.9 20.3 22.5 20.7 22 20.7H21.3V12.1Z" fill="#C53929"/>
<path d="M10 11.2L16 15.2L22.2 11.2H10Z" fill="#F1F1F1"/>
<path d="M15.9503 17.3L9.66748 13C9.16885 12.6 9.06912 12.1 9.3683 11.6C9.66748 11.1 10.2658 11 10.7645 11.3L15.9503 14.9L21.3355 11.3C21.8342 11 22.4325 11.1 22.7317 11.6C23.0309 12.1 22.9312 12.7 22.4325 13L15.9503 17.3Z" fill="#DB4437"/>
</svg>

<svg xmlns="http://www.w3.org/2000/svg" viewBox="0 0 32 32" style="enable-background:new 0 0 32 32" xml:space="preserve"><path fill="#D8D8D8" d="M16 28C9.4 28 4 22.6 4 16S9.4 4 16 4s12 5.4 12 12-5.4 12-12 12zm0-23C9.9 5 5 9.9 5 16s4.9 11 11 11 11-4.9 11-11S22.1 5 16 5z"/><path fill="#E1E1E1" d="m10.8 13.2 10.6.5v7H10.8z"/><path fill="#EEE" d="m16 17.3-5.2 3.4h10.5l.1-7z"/><path fill="#D23F31" d="M10.8 12.1v8.6h-.7c-.5 0-.9-.4-.9-.9v-7.6l1.6-.1z"/><path fill="#C53929" d="M21.3 12.1h1.6v7.7c0 .5-.4.9-.9.9h-.7v-8.6z"/><path fill-opacity=".2" fill="#262626" d="M22 20.6H10.1c-.5 0-.9-.4-.9-.9v.1c0 .5.4.9.9.9l11.9-.1c.5.1.9-.3.9-.8v-.1c0 .5-.4.9-.9.9z"/><path fill="#F1F1F1" d="m10 11.2 6 4 6.2-4z"/><path fill="#DB4437" d="M16 17.3 9.7 13c-.5-.4-.6-.9-.3-1.4.3-.5.9-.6 1.4-.3l5.2 3.6 5.4-3.6c.5-.3 1.1-.2 1.4.3.3.5.2 1.1-.3 1.4L16 17.3z"/></svg>
